icon-themes/breeze_svg/cmd/pl/lc_underlinedouble.svg

<svg viewBox="0 0 24 24" xmlns="http://www.w3.org/2000/svg"><path d="m7 4v16h4v-6h3c2.77 0 5-2.23 5-5s-2.23-5-5-5zm4 4h4c1.108 0 2 .892 2 2s-.892 2-2 2h-4zm-6 13v1h14v-1zm0 2v1h14v-1z" fill="#4d4d4d"/></svg>

<svg xmlns="http://www.w3.org/2000/svg" viewBox="0 0 24 24">
  <path
     style="fill:#4d4d4d"
     d="M 7 4 L 7 20 L 11 20 L 11 14 L 14 14 C 16.77 14 19 11.77 19 9 C 19 6.23 16.77 4 14 4 L 7 4 z M 11 8 L 15 8 C 16.108 8 17 8.892 17 10 C 17 11.108 16.108 12 15 12 L 11 12 L 11 8 z M 5 21 L 5 22 L 19 22 L 19 21 L 5 21 z M 5 23 L 5 24 L 19 24 L 19 23 L 5 23 z "
     />
</svg>
